!!!COM: Bach, Johann Sebastian
!!!OPR: Joh. Seb. Bachs vierstimmige Choralgesänge
!!!XEN: Four-part Chorales
!!!OTL: 103. Jesu, du mein liebstes leben
!!!SCT: BWV 356
!!!SCA: Thematisch-systematisches Verzeichnis der musikalischen Werke Johann Sebastian Bach: Bach-Werke-Verzeichnis (Schmieder)
!!!YOR: Bach Gesellschaft Edition xxxix
!!!ENC: Steven Rasmussen
!!!CDT: 1685/3//-1750/7/28/
!!!OCY: Deutschland
!!!YEC: Copyright (c) 1994, 2000 Center for Computer Assisted Research in the Humanities
!!!YEM: Rights to all derivative editions reserved
!!!YEN: United States of America
**kern	**silbe	**kern	**silbe	**kern	**silbe	**kern	**silbe
*I:[SOPRANO]	*I:[SOPRANO]	*I:[ALTO]	*I:[ALTO]	*I:[TENORE]	*I:[TENORE]	*I:[BASSO]	*I:[BASSO]
*>[A,A,B,B]	*	*>[A,A,B,B]	*	*>[A,A,B,B]	*	*>[A,A,B,B]	*
*>A	*	*>A	*	*>A	*	*>A	*
*clefG2	*	*clefG2	*	*clefGv2	*	*clefF4	*
*k[b-e-]	*	*k[b-e-]	*	*k[b-e-]	*	*k[b-e-]	*
*g:	*	*g:	*	*g:	*	*g:	*
*M3/4	*	*M3/4	*	*M3/4	*	*M3/4	*
=1-	=1-	=1-	=1-	=1-	=1-	=1-	=1-
2g/	Je-der	2d/	Je-der	2B-\	.	4GG/	.
.	.	.	.	.	.	4G\	.
4a/	-su,du	[4a/	-su,du	4d\	.	4F#\	.
=2	=2	=2	=2	=2	=2	=2	=2
4b-\	dubist	8a/L]	.	4d\	dubist	4G\	.
.	.	8g/J	.	.	.	.	.
4cc\	.	8f/L	dubist	4c\	.	4A\	.
.	.	8e-/J	.	.	.	.	.
4dd\	meinf\u3r	4d/	meinf\u3r	[4B-\	meinf\u3r	4B-\	.
=3	=3	=3	=3	=3	=3	=3	=3
2cc\	lieb-mich	4g/	.	4B-\]	.	4En\	lieb-mich
.	.	4a/	.	4A/	lieb-mich	4F#\	.
4b-\	-stesge-	8a/L	.	8B-\L	-stesge-	4G\	-stesge-
.	.	8g/J	.	8d\J	.	.	.
=4	=4	=4	=4	=4	=4	=4	=4
2a/	Le--ge-	4g/	.	8e-\L	Le--ge-	4C/	Le--ge-
.	.	.	.	8A\	.	.	.
.	.	4f#/	.	8d\	.	4D\	.
.	.	.	.	8c\J	.	.	.
4g;/	-ben,-ben	4d;/	.	4B-;\	-ben,-ben	4GG;/	-ben,-ben
=5	=5	=5	=5	=5	=5	=5	=5
4dd\	mei-an	4b-\	.	4f\	mei-an	4BB-/	mei-an
4ee-\	.	8a/L	.	4e-\	-nerdes	4C/	.
.	.	8g/J	.	.	.	.	.
4ff\	-nerdes	4f/	.	[4d\	See-bit-	4D\	-nerdes
=6	=6	=6	=6	=6	=6	=6	=6
4b-\	See-bit-	4g/	.	4d\]	.	4GG/	See-bit-
4cc\	.	8f/L	.	4c\	-len-tern	4AA/	.
.	.	8e-/J	.	.	.	.	.
4dd\	-len-tern	4d/	.	[4B-\	Br\a3u-Kreu-	4BB-/	-len-tern
=7	=7	=7	=7	=7	=7	=7	=7
2cc\	Br\a3u-Kreu-	4g/	.	4B-\]	.	4E-\	Br\a3u-Kreu-
.	.	8e-/L	.	8A/L	.	4C/	.
.	.	8g/J	.	8G/J	.	.	.
4cc\	-ti--zes	8f/L	.	4A/	-ti--zes	4F\	-ti--zes
.	.	8e-/J	.	.	.	.	.
=8	=8	=8	=8	=8	=8	=8	=8
2.b-;\	-gam,Stamm,	2.d;/	.	2.B-;\	-gam,Stamm,	2.BB-;/	-gam,Stamm,
=9:!!:	=9:!!:	=9:!!:	=9:!!:	=9:!!:	=9:!!:	=9:!!:	=9:!!:
*>B	*	*>B	*	*>B	*	*>B	*
2a/	Je-Hirt	2f/	Je-Hirt	2c\	.	4FF/	.
.	.	.	.	.	.	4F\	.
4g/	-su,und	[4g/	-su,und	4c\	.	4En\	.
=10	=10	=10	=10	=10	=10	=10	=10
(4a/	mei-K\o3-	8g/L]	.	4c\	mei-K\o3-	4F\	.
.	.	8f/J	.	.	.	.	.
4b-\)	.	8en/L	mei-K\o3-	4B-\	.	4G\	.
.	.	8d/J	.	.	.	.	.
4cc\	-ne-nig,	4c/	-ne-nig,	[4A/	-ne-nig,	4A\	.
=11	=11	=11	=11	=11	=11	=11	=11
2b-\	Freud'Licht	4f/	Freud'Licht	4A/]	.	4D\	Freud'Licht
.	.	4g/	.	4G/	Freud'Licht	4En\	.
4a/	undund	8g/L	.	8A\L	undund	4F\	undund
.	.	8f/J	.	8c\J	.	.	.
=12	=12	=12	=12	=12	=12	=12	=12
2g/	Won-Son-	4f/	.	8d\L	.	4BB-/	.
.	.	.	.	8G\	.	.	.
.	.	4en/	.	8c\	.	4C/	.
.	.	.	.	8B-\J	.	.	.
4f;/	-ne,-ne,	4c;/	.	4A;/	.	4FF;/	.
=13	=13	=13	=13	=13	=13	=13	=13
2b-\	duach,	4f/	.	4d\	.	4D\	.
.	.	4g/	.	2c\	mein'wie	4En\	.
4a/	mein'wie	[4d/	mein'wie	.	.	4F#\	mein'wie
=14	=14	=14	=14	=14	=14	=14	=14
4b-\	Hoff-soll	8d/L]	.	8B-\L	Hoff-soll	4G\	Hoff-soll
.	.	8g/J	.	8e-\	.	.	.
4cc\	.	8f/L	Hoff-soll	8d\	.	4A\	.
.	.	8e-/J	.	8c\J	.	.	.
4dd\	-nung,ich	4d/	-nung,ich	[4B-\	-nung,ich	4B-\	-nung,ich
=15	=15	=15	=15	=15	=15	=15	=15
2dd\	Schatzw\u3r-	8g/L	.	8B-/L]	.	2E-\	Schatzw\u3r-
.	.	8f#/	.	8A/J	.	.	.
.	.	8g/	.	4B-\	Schatzw\u3r-	.	.
.	.	8b-/J	.	.	.	.	.
4cc\	und-dig-	8a/L	.	4e-\	und-dig-	4E-\	und-dig-
.	.	8g/J	.	.	.	.	.
=16	=16	=16	=16	=16	=16	=16	=16
2.dd;\	Teil,-lich,	2.f#;/	.	2.A;/	Teil,-lich,	2.D;\	Teil,-lich,
=17	=17	=17	=17	=17	=17	=17	=17
2a/	mein'mein	2f#/	.	2d\	.	8D/L	.
.	.	.	.	.	.	8DD/	.
.	.	.	.	.	.	8D/	.
.	.	.	.	.	.	8C/J	.
4dd\	Er-Herr	4f#/	.	4d\	.	8BB-/L	.
.	.	.	.	.	.	8AA/J	.
=18	=18	=18	=18	=18	=18	=18	=18
4g/	-l\o3-Je-	4g/	.	4d\	.	8BB-/L	.
.	.	.	.	.	.	8AA/	.
4a/	.	4d/	.	4A/	.	8GG/	.
.	.	.	.	.	.	8FF#/J	.
4b-\	-sung,-su,	4d/	.	4G/	.	4GG/	.
=19	=19	=19	=19	=19	=19	=19	=19
2a/	Schmuckprei-	4e-/	.	2G/	.	4C/	.
.	.	4c/	.	.	.	4AA/	.
4a/	und-sen	8d/L	.	4F#/	.	4D\	.
.	.	8c/J	.	.	.	.	.
=20	=20	=20	=20	=20	=20	=20	=20
2.g;/	Heil,dich?	2.Bn;/	.	2.D;/	.	2.GG;/	.
==:|!	==:|!	==:|!	==:|!	==:|!	==:|!	==:|!	==:|!
*-	*-	*-	*-	*-	*-	*-	*-
!!!RWG: Key is interpreted using the Humdrum key tool.
!!!END: 1994/07/08/
!!!KEY: 3257428881
!!!EMD: Converted from MuseData to Humdrum Dec 19, 2000, by Andreas Kornstaedt using muse2kern.
